components/ui-separator-icon/src/space.svg

<svg width="16" height="16" viewBox="0 0 16 16" fill="none" xmlns="http://www.w3.org/2000/svg">
  <path fill-rule="evenodd" clip-rule="evenodd" d="M1.5 5C1.77614 5 2 5.22386 2 5.5V8.5C2 8.77614 2.22386 9 2.5 9H13.5C13.7761 9 14 8.77614 14 8.5V5.5C14 5.22386 14.2239 5 14.5 5C14.7761 5 15 5.22386 15 5.5V8.5C15 9.32843 14.3284 10 13.5 10H2.5C1.67157 10 1 9.32843 1 8.5V5.5C1 5.22386 1.22386 5 1.5 5Z" fill="currentColor"/>
</svg>

<svg xmlns="http://www.w3.org/2000/svg" width="16" height="16" fill="none" viewBox="0 0 16 16">
  <path fill="currentColor" fill-rule="evenodd" d="M1.5 5a.5.5 0 0 1 .5.5v3a.5.5 0 0 0 .5.5h11a.5.5 0 0 0 .5-.5v-3a.5.5 0 0 1 1 0v3a1.5 1.5 0 0 1-1.5 1.5h-11A1.5 1.5 0 0 1 1 8.5v-3a.5.5 0 0 1 .5-.5Z" clip-rule="evenodd"/>
</svg>
